media/img/note_logo.svg

<svg fill="none" height="28" viewBox="0 0 24 28" width="24" xmlns="http://www.w3.org/2000/svg"><path d="m17.3897.662842h-4.52v18.268958c0 2.1768-1.7385 3.9648-3.9019 3.9648-2.16343 0-3.90189-1.788-3.90189-3.9648 0-2.1378 1.69983-3.887 3.78601-3.9647v-4.5867c-4.5973.0777-8.306022 3.8481-8.306022 8.5514 0 4.7422 3.785982 8.5514 8.460552 8.5514 4.67445 0 8.46045-3.8481 8.46045-8.5514v-9.36771c1.6999 1.24391 3.786 1.98241 5.9881 2.02131v-4.58672c-3.3996-.11661-6.0653-2.91527-6.0653-6.335838z" fill="#fff" fill-opacity=".7"/></svg>

<svg width="24" height="28" viewBox="0 0 24 28" fill="none" xmlns="http://www.w3.org/2000/svg">
<path d="M17.3897 0.662842H12.8697V18.9318C12.8697 21.1086 11.1312 22.8966 8.9678 22.8966C6.80437 22.8966 5.06591 21.1086 5.06591 18.9318C5.06591 16.794 6.76574 15.0448 8.85192 14.9671V10.3804C4.25462 10.4581 0.545898 14.2285 0.545898 18.9318C0.545898 23.674 4.33188 27.4832 9.00645 27.4832C13.6809 27.4832 17.4669 23.6351 17.4669 18.9318V9.56409C19.1668 10.808 21.2529 11.5465 23.455 11.5854V6.99868C20.0554 6.88207 17.3897 4.08341 17.3897 0.662842Z" fill="white" fill-opacity="0.7"/>
</svg>
